!!!!SEGMENT: pl-wn--sd-xvi-qu-273--078_gomolka-mikolaj--sluchaj-wierny-moj-zborze-otworz-uszy-swoje.krn
!!!cenid: 15xx:283
!!!COM: Gomółka, Mikołaj
!!!COM-rismid: pe30013343
!!!CDT: ~1535->1591/04/30
!!!CNT: Polish
!!!GTL: Melodiae na psalterz polski
!!!OTL: LXXVIII. Słuchaj, wierny mój zborze, otwórz uszy swoje
!!!PDT: 1580
!!!AGN: Sacred
!!!SMS-siglum: PL-Wn
!!!SMS-shelfmark: SD XVI.Qu.273
!!!SMS-shelfwork: 078 G
!!!NIFC-rismid:
!!!ONB-nifc: Melodiae na psalterz polski
**kern	**text	**kern	**text	**kern	**text	**kern	**text
*part4	*part4	*part3	*part3	*part2	*part2	*part1	*part1
*staff4	*staff4	*staff3	*staff3	*staff2	*staff2	*staff1	*staff1
*clefF3	*	*clefC3	*	*clefC2	*	*clefG2	*
*k[b-]	*	*k[b-]	*	*k[b-]	*	*k[b-]	*
*F:	*	*F:	*	*F:	*	*F:	*
*M4/2	*	*M4/2	*	*M4/2	*	*M4/2	*
*met(C|)	*	*met(C|)	*	*met(C|)	*	*met(C|)	*
*	*verse[1]	*	*verse[1]	*	*verse[1]	*	*verse[1]
=-	=-	=-	=-	=-	=-	=-	=-
1F	Słu-	1f	Słu-	1a	Słu-	1cc	Słu-
0c	-chay/	0e	-chay/	0g	-chay/	1cc	-cháy/
=3-	=3-	=3-	=3-	=3-	=3-	=3-	=3-
.	.	.	.	.	.	0cc	wier-
1A	wier-	1e	wier-	2.a	wier-	.	.
.	.	.	.	4b-	.	.	.
=4-	=4-	=4-	=4-	=4-	=4-	=4-	=4-
2A	-ny	2f	-ny	2cc	-ny	2cc	(-ny)
1B-	mój	1f	mój	2.b-	mój	1dd	mój
.	.	.	.	2a	ӡbo-	.	.
2c	ӡbo-	2e	ӡbo-	.	.	2cc	ӡbo-
.	.	.	.	4g	.	.	.
=5-	=5-	=5-	=5-	=5-	=5-	=5-	=5-
2F/	-rӡe:	2f	-rӡe:	2a	-rӡe:	2a	(-rӡe)
1F	o-	1f	o-	1a	o-	1cc	o-
2c	-twórӡ	2e	-twórӡ	2g	-twórӡ	2cc	-twórӡ
=6-	=6-	=6-	=6-	=6-	=6-	=6-	=6-
2d	u-	2d	u-	2f	u-	2a	u-
2B-	-ʃᴣy	2d	-ʃᴣy	1f	-ʃᴣy	2b-/	-ʃᴣy
1c	swo-	2.c/	swo-	.	.	1g	swo-
.	.	.	.	2e/	swo-	.	.
.	.	4B-	.	.	.	.	.
=7-	=7-	=7-	=7-	=7-	=7-	=7-	=7-
2F/	(-ie)	2A	-ie/	2f	(-ie)	2a	(-ie)
1C	A	1c	A	1e	A	1g	A
2C	do	2c/	do	2e/	do	2g	do
=8-	=8-	=8-	=8-	=8-	=8-	=8-	=8-
2F/	ʃer-	2c/	ʃer-	2f	ʃer-	2a	ʃer-
2D	-cá	2B-	-cá	2f	-cá	2f	-cá
!!LO:PB:g=original
4E-X	po-	1B-	po-	4g	po-	1b-	po-
4D	.	.	.	4f	.	.	.
4E-	.	.	.	4g	.	.	.
4F	.	.	.	4f	.	.	.
=9-	=9-	=9-	=9-	=9-	=9-	=9-	=9-
!	!'ż'	!	!'ż'	!	!'ż'	!	!'ż'
1G	-waӡ-	1B-	-waӡ-	4d	-waӡ-	1b-	-waӡ-
.	.	.	.	4c	.	.	.
.	.	.	.	4d	.	.	.
.	.	.	.	4e	.	.	.
2F	-ne	2c/	-ne	2f	-ne	2a	-ne
1C	prӡy-	1c	prӡy-	1e	prӡy-	1g	prӡy-
=10-	=10-	=10-	=10-	=10-	=10-	=10-	=10-
.	.	.	.	.	.	.	.
2C	-puść	2c/	-puść	2e/	-puść	2g	-puść
2F	ʃło-	2c/	ʃło-	2f	ʃło-	2a	ʃło-
2G/	-wá	4B-	-wá	2d	-wá	2b-/	-wá
.	.	4A	.	.	.	.	.
=11-	=11-	=11-	=11-	=11-	=11-	=11-	=11-
1C	mo-	4G	.	4e/	mo-	2.cc	mo-
.	.	4F	.	2f	.	.	.
.	.	2G	mo-	.	.	.	.
.	.	.	.	4e/	.	4b-/	.
!	!	!'cauda po lewej stronie'	!	!	!	!	!
!!LO:N:vis=00
1F	-ie.	1F/	-ie.	1f	-ie.	1a/	-ie.
=-	=-	=-	=-	=-	=-	=-	=-
*-	*-	*-	*-	*-	*-	*-	*-
!!!RDF**kern: l = terminal long
!!!system-decoration: s1,s2,s3,s4
!!!ENC:Anna Matuszewska
!!!END:2020-02-14
!!!URL-scan: https://polona.pl/item/melodiae-na-psalterz-polski,Nzk3MTM4ODQ/184 Scan on Polona
!!!IIIF: https://polona.pl/iiif/item/Nzk3MTM4ODQ/manifest.json
